X:1
T:Lord Cathcart's Jig
S:As played by Rod Stradling
Z:John Adams - Village Music Project - tradtunes  2003-8-10
M:6/8
K:G
D|DGG GFG|A2G FGA|BAB GAB|cde f2e|d2e c2d|B2c AGA|BAB cAF|1G3-G2
:|2 G3-G2 d || d2 g gfg | a2 g fga |g2f d2e | fed cde| d2c Bcd|c2B G2A| BAG
FGA| GFE D2D|DGG GFG|A2G FGA|BAB GAB|cde f2e|d2e c2d|B2c AGA|BAB cAF|1G3-G2 d:|2 G3-G2 |
